svg/design/color_picker_fill.svg

<?xml version="1.0" encoding="UTF-8"?>
<svg width="24px" height="24px" viewBox="0 0 24 24" version="1.1" xmlns="http://www.w3.org/2000/svg" xmlns:xlink="http://www.w3.org/1999/xlink">
    <title>color_picker_fill</title>
    <g id="页面-1" stroke="none" stroke-width="1" fill="none" fill-rule="evenodd">
        <g id="Design" transform="translate(-336.000000, -144.000000)">
            <g id="color_picker_fill" transform="translate(336.000000, 144.000000)">
                 <path d="M24,0 L24,24 L0,24 L0,0 L24,0 Z M12.5934901,23.257841 L12.5819402,23.2595131 L12.5108777,23.2950439 L12.4918791,23.2987469 L12.4918791,23.2987469 L12.4767152,23.2950439 L12.4056548,23.2595131 C12.3958229,23.2563662 12.3870493,23.2590235 12.3821421,23.2649074 L12.3780323,23.275831 L12.360941,23.7031097 L12.3658947,23.7234994 L12.3769048,23.7357139 L12.4804777,23.8096931 L12.4953491,23.8136134 L12.4953491,23.8136134 L12.5071152,23.8096931 L12.6106902,23.7357139 L12.6232938,23.7196733 L12.6232938,23.7196733 L12.6266527,23.7031097 L12.609561,23.275831 C12.6075724,23.2657013 12.6010112,23.2592993 12.5934901,23.257841 L12.5934901,23.257841 Z M12.8583906,23.1452862 L12.8445485,23.1473072 L12.6598443,23.2396597 L12.6498822,23.2499052 L12.6498822,23.2499052 L12.6471943,23.2611114 L12.6650943,23.6906389 L12.6699349,23.7034178 L12.6699349,23.7034178 L12.678386,23.7104931 L12.8793402,23.8032389 C12.8914285,23.8068999 12.9022333,23.8029875 12.9078286,23.7952264 L12.9118235,23.7811639 L12.8776777,23.1665331 C12.8752882,23.1545897 12.8674102,23.1470016 12.8583906,23.1452862 L12.8583906,23.1452862 Z M12.1430473,23.1473072 C12.1332178,23.1423925 12.1221763,23.1452606 12.1156365,23.1525954 L12.1099173,23.1665331 L12.0757714,23.7811639 C12.0751323,23.7926639 12.0828099,23.8018602 12.0926481,23.8045676 L12.108256,23.8032389 L12.3092106,23.7104931 L12.3186497,23.7024347 L12.3186497,23.7024347 L12.3225043,23.6906389 L12.340401,23.2611114 L12.337245,23.2485176 L12.337245,23.2485176 L12.3277531,23.2396597 L12.1430473,23.1473072 Z" id="MingCute" fill-rule="nonzero"></path>
                <path d="M20.477,3.511 C19.3055,2.33943 17.406,2.33943 16.2344,3.511 L14.7015,5.04387 C13.589,4.50916 12.214,4.70296 11.2917,5.62529 L10.5775,6.33943 C9.79649,7.12048 9.79649,8.38681 10.5775,9.16786 L4.0923,15.6533 C3.52969,16.2159 3.21362,16.979 3.21362,17.7746 L3.21362,19.5746 C3.21362,20.2373 3.75088,20.7746 4.41362,20.7746 L6.21362,20.7746 C7.00927,20.7746 7.77234,20.4585 8.33494,19.8959 L14.8203,13.4106 C15.6013,14.1915 16.8676,14.1915 17.6486,13.4105 L18.3628,12.6964 C19.2851,11.774 19.4789,10.3991 18.9442,9.28651 L20.477,7.75364 C21.6486,6.58207 21.6486,4.68258 20.477,3.511 Z M5.50652,17.0675 L11.9918,10.5822 L13.406,11.9964 L6.92073,18.4817 C6.73319,18.6692 6.47884,18.7746 6.21362,18.7746 L5.21362,18.7746 L5.21362,17.7746 C5.21362,17.5094 5.31898,17.255 5.50652,17.0675 Z" id="形状" fill="#09244B"></path>
            </g>
        </g>
    </g>
</svg>

<svg xmlns="http://www.w3.org/2000/svg" width="24" height="24"><g fill="none" fill-rule="evenodd"><path d="M24 0v24H0V0h24ZM12.593 23.258l-.011.002-.071.035-.02.004-.014-.004-.071-.035c-.01-.004-.019-.001-.024.005l-.004.01-.017.428.005.02.01.013.104.074.015.004.012-.004.104-.074.012-.016.004-.017-.017-.427c-.002-.01-.009-.017-.017-.018Zm.265-.113-.013.002-.185.093-.01.01-.003.011.018.43.005.012.008.007.201.093c.012.004.023 0 .029-.008l.004-.014-.034-.614c-.003-.012-.01-.02-.02-.022Zm-.715.002a.023.023 0 0 0-.027.006l-.006.014-.034.614c0 .012.007.02.017.024l.015-.002.201-.093.01-.008.004-.011.017-.43-.003-.012-.01-.01-.184-.092Z"/><path fill="#09244B" d="M20.477 3.511a3 3 0 0 0-4.243 0l-1.533 1.533a2.991 2.991 0 0 0-3.41.581l-.713.714a2 2 0 0 0 0 2.829l-6.486 6.485a3 3 0 0 0-.878 2.122v1.8a1.2 1.2 0 0 0 1.2 1.2h1.8a3 3 0 0 0 2.12-.88l6.486-6.484a2 2 0 0 0 2.829 0l.714-.715a2.991 2.991 0 0 0 .581-3.41l1.533-1.532a3 3 0 0 0 0-4.243ZM5.507 17.068l6.485-6.486 1.414 1.414-6.485 6.486a1 1 0 0 1-.707.293h-1v-1a1 1 0 0 1 .293-.707Z"/></g></svg>
